share/icons/Flat-Remix-Blue-Dark/mimetypes/scalable/application-font.svg

<svg xmlns="http://www.w3.org/2000/svg" xmlns:xlink="http://www.w3.org/1999/xlink" width="36pt" height="36pt" version="1.1" viewBox="0 0 36 36"> <defs> <clipPath id="clip1"> <path d="M 20 2 L 31 2 L 31 13 L 20 13 Z M 20 2"/> </clipPath> <clipPath id="clip2"> <path d="M 20.515625 2.625 L 30.328125 12.4375 L 22.023438 12.4375 C 21.292969 12.4375 20.515625 11.660156 20.515625 10.929688 Z M 20.515625 2.625"/> </clipPath> <image id="image6" width="36" height="36" xlink:href="data:image/png;base64,iVBORw0KGgoAAAANSUhEUgAAACQAAAAkCAYAAADhAJiYAAAABmJLR0QA/wD/AP+gvaeTAAAAmklEQVRYhe3T0QqCQBBG4aOtYEoUvf9Lildltl00C4tkbBeTIP+BAUEYP1YW1Pcqh53B9kbgaVPcwQF0tAmGSrMZ6AKcDQXw+AUVHEAtcAUaewYYgYmC3+cBCkAPnDJQMcoDVNnebgEqQnmAclTz4d0I3P4JStc9AjXvk4qLWQV53LLeEOl05gw4A3dgcPiuUkoppZRSSqk99gLWvSJpuDnlsAAAAABJRU5ErkJggg=="/> </defs> <g> <path style="fill:rgb(90.196%,90.196%,90.196%)" d="M 7.347656 3.152344 C 6.675781 3.152344 6.042969 3.785156 6.042969 4.457031 L 6.042969 31.847656 C 6.042969 32.480469 6.714844 33.152344 7.347656 33.152344 L 28.21875 33.152344 C 28.851562 33.152344 29.523438 32.480469 29.523438 31.847656 L 29.523438 11.632812 L 21.042969 3.152344 Z M 7.347656 3.152344"/> <g clip-path="url(#clip1)"> <g clip-path="url(#clip2)"> <use xlink:href="#image6"/> </g> </g> <path style="fill:rgb(100.000%,100.000%,100.000%)" d="M 21.042969 3.152344 L 29.523438 11.632812 L 22.347656 11.632812 C 21.714844 11.632812 21.042969 10.960938 21.042969 10.328125 Z M 21.042969 3.152344"/> <path style="fill:rgb(0%,0%,0%);fill-opacity:0.607843" d="M 20.640625 13.132812 L 19.761719 23.738281 C 19.714844 24.234375 19.691406 24.5625 19.691406 24.71875 C 19.691406 24.96875 19.734375 25.160156 19.820312 25.292969 C 19.929688 25.472656 20.074219 25.609375 20.257812 25.695312 C 20.445312 25.785156 20.757812 25.828125 21.199219 25.828125 L 21.105469 26.175781 L 16.535156 26.175781 L 16.632812 25.828125 L 16.828125 25.828125 C 17.199219 25.828125 17.5 25.738281 17.734375 25.5625 C 17.898438 25.445312 18.027344 25.246094 18.121094 24.972656 C 18.183594 24.777344 18.242188 24.320312 18.300781 23.597656 L 18.4375 21.980469 L 15.117188 21.980469 L 13.9375 23.738281 C 13.667969 24.132812 13.5 24.417969 13.433594 24.59375 C 13.363281 24.765625 13.328125 24.925781 13.328125 25.074219 C 13.328125 25.277344 13.402344 25.449219 13.550781 25.59375 C 13.699219 25.734375 13.945312 25.816406 14.289062 25.828125 L 14.191406 26.175781 L 10.761719 26.175781 L 10.859375 25.828125 C 11.28125 25.808594 11.648438 25.65625 11.96875 25.367188 C 12.292969 25.070312 12.777344 24.449219 13.414062 23.496094 L 20.34375 13.132812 L 20.640625 13.132812 M 18.949219 16.261719 L 15.585938 21.292969 L 18.503906 21.292969 L 18.949219 16.261719"/> </g> </svg>

<svg width="36pt" height="36pt" version="1.1" viewBox="0 0 36 36" xmlns="http://www.w3.org/2000/svg"><defs><filter id="a" x="-.192" y="-.192" width="1.384" height="1.384" color-interpolation-filters="sRGB"><feGaussianBlur stdDeviation="0.67843748"/></filter></defs><path d="m7.3477 3.9022c-0.67188 0-1.3047 0.63281-1.3047 1.3047v27.391c0 0.63281 0.67188 1.3047 1.3047 1.3047h20.871c0.63281 0 1.3047-0.67188 1.3047-1.3047v-20.215l-8.4805-8.4805z" opacity=".3"/><path d="m7.3477 3.1523c-0.67188 0-1.3047 0.63281-1.3047 1.3047v27.391c0 0.63281 0.67188 1.3047 1.3047 1.3047h20.871c0.63281 0 1.3047-0.67188 1.3047-1.3047v-20.215l-8.4805-8.4805z" fill="#e5e5e5"/><path d="m20.668 3.5272 8.4805 8.4805h-7.1758c-0.63281 0-1.3047-0.67187-1.3047-1.3047z" filter="url(#a)" opacity=".2"/><path d="m21.043 3.1523 8.4805 8.4805h-7.1758c-0.63281 0-1.3047-0.67187-1.3047-1.3047z" fill="#fff"/><path d="m20.641 13.133-0.87891 10.605c-0.046875 0.49609-0.070313 0.82422-0.070313 0.98047 0 0.25 0.042969 0.44141 0.12891 0.57422 0.10938 0.17969 0.25391 0.31641 0.4375 0.40234 0.1875 0.089844 0.5 0.13281 0.94141 0.13281l-0.09375 0.34766h-4.5703l0.097656-0.34766h0.19531c0.37109 0 0.67188-0.089844 0.90625-0.26562 0.16406-0.11719 0.29297-0.31641 0.38672-0.58984 0.0625-0.19531 0.12109-0.65234 0.17969-1.375l0.13672-1.6172h-3.3203l-1.1797 1.7578c-0.26953 0.39453-0.4375 0.67969-0.50391 0.85547-0.070313 0.17188-0.10547 0.33203-0.10547 0.48047 0 0.20312 0.074219 0.375 0.22266 0.51953 0.14844 0.14062 0.39453 0.22266 0.73828 0.23438l-0.097656 0.34766h-3.4297l0.097656-0.34766c0.42188-0.019531 0.78906-0.17188 1.1094-0.46094 0.32422-0.29688 0.80859-0.91797 1.4453-1.8711l6.9297-10.363h0.29688m-1.6914 3.1289-3.3633 5.0312h2.918l0.44531-5.0312" fill-opacity=".60784"/></svg>
